packages/katcn/src/icons/svg/card-solid.svg

<svg width="24" height="25" viewBox="0 0 24 25" fill="none" xmlns="http://www.w3.org/2000/svg">
<path d="M16.7 22.312H7.3C5.5 22.312 4 20.812 4 18.812V5.81201C4 3.81201 5.5 2.31201 7.3 2.31201H12.2C13.3 2.31201 14.4 2.81201 15.1 3.61201L18.7 7.41201C19.6 8.21201 20 9.31201 20 10.412V18.912C20 20.812 18.5 22.312 16.7 22.312Z" fill="black"/>
<path d="M14.6 18.312H9.40001C8.50001 18.312 7.70001 17.612 7.70001 16.612V13.312C7.70001 12.412 8.40001 11.612 9.40001 11.612H14.6C15.5 11.612 16.3 12.312 16.3 13.312V16.612C16.3 17.612 15.5 18.312 14.6 18.312Z" fill="white"/>
</svg>

<svg xmlns="http://www.w3.org/2000/svg" fill="none" viewBox="0 0 24 25"><path fill="#000" d="M16.7 22.312H7.3c-1.8 0-3.3-1.5-3.3-3.5v-13c0-2 1.5-3.5 3.3-3.5h4.9c1.1 0 2.2.5 2.9 1.3l3.6 3.8c.9.8 1.3 1.9 1.3 3v8.5c0 1.9-1.5 3.4-3.3 3.4"/><path fill="#fff" d="M14.6 18.312H9.4c-.9 0-1.7-.7-1.7-1.7v-3.3c0-.9.7-1.7 1.7-1.7h5.2c.9 0 1.7.7 1.7 1.7v3.3c0 1-.8 1.7-1.7 1.7"/></svg>
